X:1
T:James Gibb editions
T:Veni Creator - Ravanello
T:#
%%score { 1 | 2 } 3
L:1/8
Q:1/4=126
M:4/4
K:Bb
V:1 treble nm="Soprano I" snm="S"
V:2 treble 
V:3 treble nm="Alto" snm="A"
V:1
"^Veni Creator, op.66/14""^Oreste Ravanello\n (1871-1938)""^moderato"!mf! (F4 G2) F2 | B4 G2- G2 | %2
w: Ve- ni Cre-|a- tor *|
w: Tu se- pti-|for- mis *|
w: Ho- stem re-|pel- las *|
w: De\- * o|Pa- tri sit|
 B6 A2 |"^," B8 | B3- B F2 G2 |[M:4/4] (B4 c2) B2 | c4 d4 | c6-"^," c2 | c4 c2 d2 | (B2 e4) d2 | %10
w: Spi- ri-|tus,|Men\- * tes tu-|o\- * rum|vi- si-|ta, *|Im- ple su-|per\- * na|
w: mu- ne-|re,|Di- gi- tus pa-|ter\- * nae|de- xte-|rae, Tu|ri- te pro-|mis\- * cum|
w: lon- gi-|us,|Pa\- * cem- que|do\- * nes|pro- ti-|nus: *|Du- cto- re|sic * te|
w: glo- ri-|a,|Et * Fi- li-|o, qui a|mor- tu-|is, *|Sur- re- xit|ac * Pa-|
 (c4 B4) |"^," c8 | c4 B2 c2 | e4 d4 | (c2 f4) =e2 | !fermata!f8 || %16
w: gra- ti-|a,|Quae tu cre-|a- sti|pe\- * cto-|ra.|
w: Pa\- *|tris,|Ser- mo- ne|di- tans|gut\- * tu-|ra.|
w: prae- vi-|o,|Vi- te- mus|o- mne|no\- * xi-|um.|
w: ra- cli-|to,|In sae- cu-|lo- rum|sae\- * cu-|la.|
[Q:1/4=72][Q:1/4=72] FG (FE) F (GF)Bc B2 | BFGB (cB)cd c2 | B (cd)(B A) (GF) (Bc)FG B2 | %19
w: Qui di- ce\- * ris Pa\- * ra- cli- tus,|Al- ti- si- mi do\- * num De- i,|fons vi\- * vus * i\- * gnis * ca- ri- tas|
w: Ac- cen- de * lu- men * sen- si- bus|in- fun- de a- mo- rem cor- di- bus:|in- fir\- * ma * no\- * stri * cor- po- ris|
w: Per te sci\- * a- mus * da Pa- trem,|no- sca- mus at- que * Fi- li- um|te que * u- tri- us\- * que * Spi- ri- tum|
w: |||
 (AB)G (F E)G (GAG)FE F2 ||[M:4/4][Q:1/4=126][Q:1/4=126] (c4 d4) | !fermata!c8 |] %22
w: Et * Spi- ri\- * ta- lis * * un- cti- o.|A\- *|men.|
w: vir\- * tu- te * fir- mans * * per- pe- ti.|||
w: cre\- * da- mus * o- mni * * tem- po- re.|||
w: |||
V:2
 (D4 E2) D2 | D4 E2- E2 | (D2 GF) E4 |"^," D8 | D3- D D2 E2 |[M:4/4] ((F2 B2) A2) F2 | A4 B4 | %7
w: Ve- ni Cre-|a- tor *|Spi\- * * ri-|tus,|Men\- * tes tu-|o\- * * rum|vi- si-|
w: Tu se- pti-|for- mis *|mu\- * * ne-|re,|Di- gi- tus pa-|ter\- * * nae|de- xte-|
w: Ho- stem re-|pel- las *|lon\- * * gi-|us,|Pa\- * cem- que|do\- * * nes|pro- ti-|
w: De\- * o|Pa- tri sit|glo\- * * ri-|a,|Et * Fi- li-|o, * qui a|mor- tu-|
 A6-"^," A2 | A4 A2 A2 | G6 B2 | (A4 B4- | B2) (AG"^," A4) | A4 G2 A2 | (G2 A2) B4 | B2 A2 G4 | %15
w: ta, *|Im- ple su-|per- na|gra- ti\-|* a, * *|Quae tu cre-|a\- * sti|pe\- * cto-|
w: rae, Tu|ri- te pro-|mis- cum|Pa\- *|* tris, * *|Ser- mo- ne|di\- * tans|gut\- * tu-|
w: nus: *|Du- cto- re|sic te|prae- vi\-|* o, * *|Vi- te- mus|o\- * mne|no\- * xi-|
w: is, *|Sur- re- xit|ac Pa-|ra- cli\-|* to, * *|In sae- cu-|lo\- * rum|sae\- * cu-|
 !fermata!A8 || x11 | x10 | x13 | x13 ||[M:4/4] (A4 B4) | !fermata!A8 |] %22
w: ra.|||||A\- *|men.|
w: ra.|||||||
w: um.|||||||
w: la.|||||||
V:3
 (B,4 E2) B,2 | G,4 C2- C2 | (B,2 ED) C4 |"^," B,8 | B,3- B, B,2 E2 |[M:4/4] ((D2 G2) F2) D2 | %6
w: Ve- ni Cre-|a- tor *|Spi\- * * ri-|tus,|Men\- * tes tu-|o\- * * rum|
w: Tu se- pti-|for- mis *|mu\- * * ne-|re,|Di- gi- tus pa-|ter\- * * nae|
w: Ho- stem re-|pel- las *|lon\- * * gi-|us,|Pa\- * cem- que|do\- * * nes|
w: De\- * o|Pa- tri sit|glo\- * * ri-|a,|Et * Fi- li-|o, * qui a|
 F4 (B,2 D2) | F6-"^," F2 | F4 F2 F2 | (F2 ED C2) B,2 | (F4 G4) |"^," F8 | F4 G2 F2 | C4 (D2 E2) | %14
w: vi- si\- *|ta, *|Im- ple su-|per\- * * * na|gra- ti-|a,|Quae tu cre-|a- sti *|
w: de- xte\- *|rae, Tu|ri- te pro-|mis\- * * * cum|Pa\- *|tris,|Ser- mo- ne|di- tans *|
w: pro- ti\- *|nus: *|Du- cto- re|sic * * * te|prae- vi-|o,|Vi- te- mus|o- mne *|
w: mor- tu\- *|is, *|Sur- re- xit|ac * * * Pa-|ra- cli-|to,|In sae- cu-|lo- rum *|
 F4 C4 | !fermata!F8 || z11 | z10 | z13 | z13 ||[M:4/4] (F4 B,4) | !fermata!F8 |] %22
w: pe- cto-|ra.|||||A\- *|men.|
w: gut- tu-|ra.|||||||
w: no- xi-|um.|||||||
w: sae- cu-|la.|||||||

